assets/icons/icon-receipt/web/icon-receipt.svg

<?xml version="1.0" encoding="UTF-8" standalone="no"?>
<svg width="48px" height="48px" viewBox="0 0 48 48" version="1.1" xmlns="http://www.w3.org/2000/svg" xmlns:xlink="http://www.w3.org/1999/xlink">
    <!-- Generator: Sketch 45.2 (43514) - http://www.bohemiancoding.com/sketch -->
    <title>icon-receipt</title>
    <desc>Created with Sketch.</desc>
    <defs></defs>
    <g id="Symbols" stroke="none" stroke-width="1" fill="none" fill-rule="evenodd">
        <g id="icon-receipt">
            <g transform="translate(12.539978, 11.000000)">
                <path d="M1.46002191,0.996534824 L1.46002191,26.1931765 L5.4814106,23.6730406 L7.6308744,26.4341332 L10.1595942,23.5692144 L13.3816255,26.5622837 L15.8824027,23.6719949 L19.4600219,26.108901 L19.4600219,1 L1.45182502,1 C1.45715327,1 1.45926896,1.0006793 1.46002191,1.0006983 C1.4604144,1.0007082 1.46043659,1.00053869 1.4603505,1 C1.4602541,0.999396744 1.46002191,0.998330514 1.46002191,0.996534824 Z" id="Rectangle-23" stroke="#2D2D2D" stroke-width="2"></path>
                <rect id="Rectangle-24" fill="#2D2D2D" x="4.46002191" y="13" width="10.9879518" height="2" rx="1"></rect>
                <rect id="Rectangle-24-Copy" fill="#2D2D2D" x="4.46002191" y="16" width="6.99233297" height="2" rx="1"></rect>
                <rect id="Rectangle-24-Copy-2" fill="#2D2D2D" x="4.46002191" y="19" width="11.9868565" height="2" rx="1"></rect>
                <rect id="Rectangle-25" fill="#2D2D2D" x="4.46002191" y="4" width="1.99780942" height="7" rx="0.99890471"></rect>
                <rect id="Rectangle-25-Copy-2" fill="#2D2D2D" x="11.4600219" y="4" width="1.99780942" height="7" rx="0.99890471"></rect>
                <rect id="Rectangle-25-Copy-3" fill="#2D2D2D" x="14.4600219" y="4" width="1.99780942" height="7" rx="0.99890471"></rect>
                <rect id="Rectangle-25-Copy" fill="#2D2D2D" x="7.46002191" y="4" width="2.99671413" height="7" rx="1.49835706"></rect>
            </g>
        </g>
    </g>
</svg>

<svg width="48" height="48" viewBox="0 0 48 48" xmlns="http://www.w3.org/2000/svg"><title>icon-receipt</title><g transform="translate(12.54 11)" fill="none" fill-rule="evenodd"><path d="M1.46.997v25.196l4.021-2.52 2.15 2.761 2.529-2.865 3.222 2.993 2.5-2.89 3.578 2.437V1H1.452h.008V.997z" stroke="#2D2D2D" stroke-width="2"/><rect fill="#2D2D2D" x="4.46" y="13" width="10.988" height="2" rx="1"/><rect fill="#2D2D2D" x="4.46" y="16" width="6.992" height="2" rx="1"/><rect fill="#2D2D2D" x="4.46" y="19" width="11.987" height="2" rx="1"/><rect fill="#2D2D2D" x="4.46" y="4" width="1.998" height="7" rx=".999"/><rect fill="#2D2D2D" x="11.46" y="4" width="1.998" height="7" rx=".999"/><rect fill="#2D2D2D" x="14.46" y="4" width="1.998" height="7" rx=".999"/><rect fill="#2D2D2D" x="7.46" y="4" width="2.997" height="7" rx="1.498"/></g></svg>
